Numix/32/status/weather-fog.svg

<?xml version="1.0" encoding="UTF-8" standalone="yes"?>
<svg xmlns="http://www.w3.org/2000/svg" xmlns:xlink="http://www.w3.org/1999/xlink" width="32px" height="32px" viewBox="0 0 24 24" version="1.1">
  <g id="surface1">
    <path style=" stroke:none;fill-rule:nonzero;fill:rgb(92.54902%,92.54902%,92.54902%);fill-opacity:1;" d="M 14.070312 5 C 11.046875 5 8.597656 5.492188 8.597656 6.109375 C 8.597656 6.722656 11.046875 7.214844 14.070312 7.214844 C 17.097656 7.214844 19.546875 6.722656 19.546875 6.109375 C 19.546875 5.492188 17.097656 5 14.070312 5 Z M 9.820312 8.152344 C 6.328125 8.152344 3.5 8.621094 3.5 9.210938 C 3.5 9.800781 6.328125 10.289062 9.820312 10.289062 C 13.3125 10.289062 16.148438 9.800781 16.148438 9.210938 C 16.148438 8.621094 13.3125 8.152344 9.820312 8.152344 Z M 9.820312 8.152344 "/>
    <path style=" stroke:none;fill-rule:nonzero;fill:rgb(92.54902%,92.54902%,92.54902%);fill-opacity:1;" d="M 15.023438 11.171875 C 12 11.171875 9.546875 11.664062 9.546875 12.277344 C 9.546875 12.894531 12 13.386719 15.023438 13.386719 C 18.046875 13.386719 20.5 12.894531 20.5 12.277344 C 20.5 11.664062 18.046875 11.171875 15.023438 11.171875 Z M 10.773438 14.324219 C 7.28125 14.324219 4.453125 14.789062 4.453125 15.378906 C 4.453125 15.96875 7.28125 16.457031 10.773438 16.457031 C 14.265625 16.457031 17.101562 15.96875 17.101562 15.378906 C 17.101562 14.789062 14.265625 14.324219 10.773438 14.324219 Z M 14.457031 17.363281 C 12.125 17.363281 10.238281 17.722656 10.238281 18.175781 C 10.238281 18.628906 12.125 19 14.457031 19 C 16.789062 19 18.679688 18.628906 18.679688 18.175781 C 18.679688 17.722656 16.789062 17.363281 14.457031 17.363281 Z M 14.457031 17.363281 "/>
  </g>
</svg>

<svg xmlns="http://www.w3.org/2000/svg" width="32" height="32" viewBox="0 0 24 24">
 <g>
  <path d="m 14.07 5 c -3.02 0 -5.473 0.492 -5.473 1.109 c 0 0.613 2.449 1.105 5.473 1.105 c 3.03 0 5.477 -0.492 5.477 -1.105 c 0 -0.617 -2.449 -1.109 -5.477 -1.109 m -4.25 3.152 c -3.492 0 -6.32 0.469 -6.32 1.059 c 0 0.59 2.828 1.078 6.32 1.078 c 3.492 0 6.328 -0.488 6.328 -1.078 c 0 -0.59 -2.836 -1.059 -6.328 -1.059 m 0 0" style="fill:#ececec;fill-opacity:1;stroke:none;fill-rule:nonzero"/>
  <path d="m 15.02 11.172 c -3.02 0 -5.477 0.492 -5.477 1.105 c 0 0.617 2.453 1.109 5.477 1.109 c 3.02 0 5.477 -0.492 5.477 -1.109 c 0 -0.613 -2.453 -1.105 -5.477 -1.105 m -4.25 3.152 c -3.492 0 -6.32 0.465 -6.32 1.055 c 0 0.59 2.828 1.078 6.32 1.078 c 3.492 0 6.328 -0.488 6.328 -1.078 c 0 -0.59 -2.836 -1.055 -6.328 -1.055 m 3.684 3.039 c -2.332 0 -4.219 0.359 -4.219 0.813 c 0 0.453 1.887 0.824 4.219 0.824 c 2.332 0 4.223 -0.371 4.223 -0.824 c 0 -0.453 -1.891 -0.813 -4.223 -0.813 m 0 0" style="fill:#ececec;fill-opacity:1;stroke:none;fill-rule:nonzero"/>
 </g>
</svg>
